src/icons/svg/stack-exchange.svg

<?xml version="1.0"?><svg xmlns="http://www.w3.org/2000/svg" width="40" height="40" viewBox="0 0 40 40"><path  d="m33.6 28v1.4q0 1.9-1.3 3.3t-3.1 1.3h-1.2l-5.8 6v-6h-11.9q-1.8 0-3-1.3t-1.3-3.3v-1.4h27.6z m0-7.3v5.7h-27.6v-5.7h27.6z m0-7.3v5.7h-27.6v-5.7h27.6z m0-3.2v1.5h-27.6v-1.5q0-1.8 1.3-3.2t3-1.3h18.9q1.8 0 3.1 1.3t1.3 3.2z"></path></svg>

<svg xmlns="http://www.w3.org/2000/svg" width="40" height="40" viewBox="0 0 40 40"><path d="M33.6 28v1.4q0 1.9-1.3 3.3T29.2 34H28l-5.8 6v-6H10.3q-1.8 0-3-1.3T6 29.4V28h27.6zm0-7.3v5.7H6v-5.7h27.6zm0-7.3v5.7H6v-5.7h27.6zm0-3.2v1.5H6v-1.5Q6 8.4 7.3 7t3-1.3h18.9q1.8 0 3.1 1.3t1.3 3.2z"/></svg>
